assets/web/icons/video-call-off.svg

<svg width="24" height="24" viewBox="0 0 24 24" fill="none" xmlns="http://www.w3.org/2000/svg">
<path d="M2.74715 2.75285L4.34956 4.35527C4.35221 4.35407 4.35486 4.35287 4.35751 4.35168L6.0058 5.99996H6.00005L5.99426 5.99997L16 16.0058V15.9942L18 17.9942V18L18 18.0058L21.2471 21.2529C21.6377 21.6434 21.6377 22.2766 21.2471 22.6671C20.8566 23.0576 20.2235 23.0576 19.8329 22.6671L16.9345 19.7687C16.6556 19.9163 16.3376 20 16 20H6.00005C3.79091 20 2.00005 18.2091 2.00005 16V7.99996C2.00005 7.10818 2.29188 6.28456 2.78525 5.61939L1.33293 4.16707C0.942408 3.77654 0.942408 3.14338 1.33293 2.75285C1.72346 2.36233 2.35662 2.36233 2.74715 2.75285ZM4.23133 7.06548C4.08367 7.34438 4.00005 7.66241 4.00005 7.99996V16C4.00005 17.1045 4.89548 18 6.00005 18H15.1658L4.23133 7.06548ZM16 5.99996H8.83423L6.83423 3.99996H16C17.1046 3.99996 18 4.89539 18 5.99996V10.2857L21.3493 7.41493C21.9979 6.85892 23 7.31983 23 8.17418V15.8257C23 16.6801 21.9979 17.141 21.3493 16.585L18 13.7142V15.1658L16 13.1658V5.99996ZM21 13.6515V10.3484L19.0732 12L21 13.6515Z" fill="currentColor"/>
</svg>

<svg xmlns="http://www.w3.org/2000/svg" width="24" height="24" fill="currentColor" viewBox="0 0 24 24">
  <path d="M2.747 2.753 4.35 4.355l.008-.003L6.006 6h-.012L16 16.006v-.012l2 2v.012l3.247 3.247a1 1 0 1 1-1.414 1.414l-2.898-2.898A1.99 1.99 0 0 1 16 20H6a4 4 0 0 1-4-4V8c0-.892.292-1.715.785-2.38L1.333 4.166a1 1 0 0 1 1.414-1.414Zm1.484 4.313a1.991 1.991 0 0 0-.23.934v8A2 2 0 0 0 6 18h9.166L4.23 7.066ZM16 6H8.834l-2-2H16a2 2 0 0 1 2 2v4.286l3.35-2.871a1 1 0 0 1 1.65.76v7.65a1 1 0 0 1-1.65.76L18 13.715v1.45l-2-2V6Zm5 7.652v-3.303L19.073 12 21 13.652Z"/>
</svg>
